!!!COM: Palestrina, Giovanni Perluigi da
!!!OPR: In duplicibus minoribus (II)
!!!OTL: Sanctus rpt
**kern	**kern	**kern	**kern	**kern
*Ibass	*Itenor	*Itenor	*Icalto	*Icant
!Bassus	!Tenor 2	!Tenor 1	!Altus	!Cantus
*clefF4	*clefGv2	*clefGv2	*clefG2	*clefG2
*k[]	*k[]	*k[]	*k[]	*k[]
*E:phr	*E:phr	*E:phr	*E:phr	*E:phr
*M4/2	*M4/2	*M4/2	*M4/2	*M4/2
=1	=1	=1	=1	=1
1E	0r	0r	0r	0r
1G	.	.	.	.
=2	=2	=2	=2	=2
1.A	0r	0r	0r	1r
.	.	.	.	1e
2G	.	.	.	.
=3	=3	=3	=3	=3
2E	1r	0r	1B	1g
2G	.	.	.	.
1F	1A	.	1d	[1a
=4	=4	=4	=4	=4
1E	1B	0r	0e	2a]
.	.	.	.	2g
1C	2.c	.	.	2e
.	.	.	.	2g
.	4B	.	.	.
=5	=5	=5	=5	=5
1D	4A	0r	1d	1f
.	4G	.	.	.
.	1A	.	.	.
1E	.	.	1B	1e
.	2G#	.	.	.
=6	=6	=6	=6	=6
1D	0A	1r	1d	1f
1AA	.	1E	1c	[1e
=7	=7	=7	=7	=7
1E	2r	1G	1B	2e]
.	1E	.	.	2b
2.AA	.	[1A	2e	[1cc
.	2F	.	4c	.
4BB	.	.	4d	.
=8	=8	=8	=8	=8
4C	2.E	2A]	4e	2cc]
4D	.	.	4f	.
1E	.	2G	2.g	4b
.	4F	.	.	4a
.	1G	2E	.	2b
.	.	.	4f	.
2C	.	2G	[2e	2cc
=9	=9	=9	=9	=9
2.D	1r	0F	2e]	0a
.	.	.	4d	.
4E	.	.	4c	.
4F	1A	.	1d	.
4G	.	.	.	.
[2A	.	.	.	.
=10	=10	=10	=10	=10
2A]	1B	1E	1e	1r
2G#	.	.	.	.
1A	1c	2r	2r	1e
.	.	[2A	[2c	.
=11	=11	=11	=11	=11
0r	1A	2A]	2c]	1f
.	.	2F	2A	.
.	1r	2G	2B	1e
.	.	2A	2c	.
=12	=12	=12	=12	=12
0r	0r	2D	2d	1d
.	.	2.d	2.f	.
.	.	.	.	1f
.	.	4c	4e	.
.	.	2A	2c	.
=13	=13	=13	=13	=13
0r	1r	2B	2d	1g
.	.	2c	2e	.
.	2r	[1F	1f	[1a
.	[2c	.	.	.
=14	=14	=14	=14	=14
0r	2c]	1F]	2r	1a]
.	2A	.	2f	.
.	2B	1r	2d	1g
.	2c	.	2e	.
=15	=15	=15	=15	=15
0r	2F	2r	2d	1f
.	2.A	4F	2.c	.
.	.	4G	.	.
.	.	4A	.	1e
.	4G	4B	4B	.
.	2E	[2c	2G	.
=16	=16	=16	=16	=16
0r	2F	2c]	2A	1d
.	2G	2.B	2G	.
.	2D	.	1A	1d
.	.	4A	.	.
.	2F	[2A	.	.
=17	=17	=17	=17	=17
1r	1E	2A]	1B	1e
.	.	4G#	.	.
.	.	4F#	.	.
[1E	[1e	2.G#	1B	1r
.	.	4F#	.	.
=18	=18	=18	=18	=18
2E]	1e]	2E	1c	0r
2C	.	1A	.	.
2D	2r	.	1B	.
2E	2e	2G#	.	.
=19	=19	=19	=19	=19
2AA	2e	1A	1A	1r
2.A	2.c	.	.	.
.	.	1r	1c	2r
4G	4B	.	.	.
2E	2G	.	.	[2cc
=20	=20	=20	=20	=20
2F	2A	1r	1d	2cc]
2G	2B	.	.	2b
[1C	1G	2r	[1e	2.cc
.	.	[2G	.	.
.	.	.	.	4b
=21	=21	=21	=21	=21
1C]	2r	2G]	1e]	1g
.	2c	2E	.	.
1r	2A	2F	1d	2a
.	2B	2G	.	[2g
=22	=22	=22	=22	=22
0r	1e	1C	1c	2g]
.	.	.	.	4f
.	.	.	.	4e
.	2d	2D	1B	2f
.	2G	2E	.	[2e
=23	=23	=23	=23	=23
1r	4c	1.F	1A	2e]
.	4B	.	.	.
.	4A	.	.	4d
.	4G	.	.	4c
2r	2A	.	1A	2d
[2A	2D	2F	.	2d
=24	=24	=24	=24	=24
2A]	1r	1E	1B	1e
2G#	.	.	.	.
1A	1c	2r	[1e	1r
.	.	[2A	.	.
=25	=25	=25	=25	=25
1E	2B	2A]	1e]	1b
.	1B	2G#	.	.
1AA	.	1A	1e	1cc
.	[2A	.	.	.
=26	=26	=26	=26	=26
1E	2A]	2B	[0e	1b
.	2G#	2B	.	.
1AA	2A	2c	.	1a
.	2A	2c	.	.
=27	=27	=27	=27	=27
[0E	[0G#	[0B	1e_	[0b
.	.	.	1e_	.
=28	=28	=28	=28	=28
0E]	0G#]	0B]	0e]	0b]
*	*	*	*	*-
!! Pleni
*Itenor	*Itenor	*Icalto	*Icant
!Tenor 2	!Tenor 1	!Altus	!Cantus
*clefGv2	*clefGv2	*clefG2	*clefG2
*k[]	*k[]	*k[]	*k[]
*E:phr	*E:phr	*E:phr	*E:phr
*M4/2	*M4/2	*M4/2	*M4/2
=29	=29	=29	=29
0r	0r	1e	0r
.	.	2d	.
.	.	2B	.
=30	=30	=30	=30
1A	0r	4c	0r
.	.	4d	.
.	.	4e	.
.	.	4f	.
2G	.	1g	.
2E	.	.	.
=31	=31	=31	=31
4F	0r	2.c	0a
4G	.	.	.
4A	.	.	.
4B	.	4d	.
2c	.	2e	.
2d	.	2f	.
=32	=32	=32	=32
2B	0r	2d	0g
2.c	.	2.e	.
4B	.	4d	.
2G	.	[2d	.
=33	=33	=33	=33
1A	2r	2d]	0e
.	2A	2c	.
2r	2G	1B	.
2e	2E	.	.
=34	=34	=34	=34
2.c	4F	4A	0a
.	4G	4B	.
.	4A	4c	.
4B	4B	4d	.
2A	2c	2e	.
2D	[2d	2f	.
=35	=35	=35	=35
0G	2d]	2g	0b
.	4G	2e	.
.	4A	.	.
.	4B	2d	.
.	4c	.	.
.	2d	2B	.
=36	=36	=36	=36
1C	2.e	4c	0g
.	.	4B	.
.	.	4c	.
.	4d	4d	.
1r	2c	4e	.
.	.	4f	.
.	2B	[2g	.
=37	=37	=37	=37
1r	2c	2g]	0a
.	1d	2f	.
1A	.	1e	.
.	2c#	.	.
=38	=38	=38	=38
2F	2.d	1.f	0a
2D	.	.	.
.	4c	.	.
4F	4A	.	.
4G	4B	.	.
4A	4c	2e	.
4B	4d	.	.
=39	=39	=39	=39
2c	2e	1r	0g
4B	4d	.	.
4A	4c	.	.
1B	1d	2r	.
.	.	2d	.
=40	=40	=40	=40
0A	1e	2c	0a
.	.	2A	.
.	2r	4c	.
.	.	4d	.
.	[2c	4e	.
.	.	4f	.
=41	=41	=41	=41
2r	4c]	2g	[0e
.	4B	.	.
2e	1A	1c	.
2A	.	.	.
2B	2G#	[2B	.
=42	=42	=42	=42
1c	1A	4B]	0e]
.	.	4A	.
.	.	1A	.
1B	1E	.	.
.	.	2G#	.
=43	=43	=43	=43
1A	0r	2A	1c
.	.	2e	.
1r	.	2f	2d
.	.	2c	2e
=44	=44	=44	=44
1r	1r	1d	1f
2r	2r	2c	[1e
2G	2B	2B	.
=45	=45	=45	=45
2A	2c	2A	1e]
2B	2G	2E	.
1c	1A	1e	1r
=46	=46	=46	=46
2B	1E	1e	2r
2B	.	.	2g
2c	1r	2r	2a
2G	.	2g	2b
=47	=47	=47	=47
1A	1r	2e	1cc
.	.	2f#	.
2G	2r	1g	2b
2G	2B	.	2dd
=48	=48	=48	=48
2A	2c	[0e	2cc
2B	2G	.	2.b
1c	1A	.	.
.	.	.	4a
.	.	.	[2a
=49	=49	=49	=49
1B	1E	0e]	2a]
.	.	.	2g#
1A	1c	.	1a
=50	=50	=50	=50
[0E	[0B	[0e	[0g#
=51	=51	=51	=51
0E]	0B]	0e]	0g#]
*-	*-	*-	*-
!! Hosanna
**kern	**kern	**kern	**kern	**kern
*Ibass	*Itenor	*Itenor	*Icalto	*Icant
!Bassus	!Tenor 2	!Tenor 1	!Altus	!Cantus
*clefF4	*clefGv2	*clefGv2	*clefG2	*clefG2
*k[]	*k[]	*k[]	*k[]	*k[]
*E:phr	*E:phr	*E:phr	*E:phr	*E:phr
*M4/2	*M4/2	*M4/2	*M4/2	*M4/2
=52	=52	=52	=52	=52
1r	1r	1r	1e	0r
1E	1e	[1B	1g	.
=53	=53	=53	=53	=53
1G	1d	1B]	2.g	1r
.	.	.	4f	.
1A	2c	2.c	4e	1e
.	.	.	4d	.
.	2A	.	2c	.
.	.	4d	.	.
=54	=54	=54	=54	=54
1E	1B	1e	2B	1g
.	.	.	1e	.
2r	2.A	1c	.	1a
[2A	.	.	2e	.
.	4B	.	.	.
=55	=55	=55	=55	=55
2A]	2c	2r	2A	1e
2G	2B	1e	2B	.
1A	1e	.	2c	2r
.	.	2c	[2e	[2a
=56	=56	=56	=56	=56
1B	1r	1d	4e]	2a]
.	.	.	4d	.
.	.	.	2d	2g
1A	2r	1e	4c	1a
.	.	.	4d	.
.	2c	.	4e	.
.	.	.	4f	.
=57	=57	=57	=57	=57
1G	2d	1r	1g	1b
.	1d	.	.	.
1A	.	2r	2f	1a
.	[2c	2A	4e	.
.	.	.	4d	.
=58	=58	=58	=58	=58
0r	2c]	2c	2e	1g
.	2.B	2d	2.d	.
.	.	[1e	.	1a
.	4A	.	4c	.
.	[2A	.	4c	.
.	.	.	8B	.
.	.	.	8A	.
=59	=59	=59	=59	=59
1E	2A]	1e]	1B	0r
.	2G#	.	.	.
1F	1A	2c	2r	.
.	.	[2d	2A	.
=60	=60	=60	=60	=60
1E	1r	2d]	2B	1e
.	.	2c#	2G	.
1D	2r	1d	2A	1f
.	2F	.	[2d	.
=61	=61	=61	=61	=61
1r	2G	2r	2d]	1e
.	2A	2A	2c#	.
1F	1D	2A	[1d	1d
.	.	2A	.	.
=62	=62	=62	=62	=62
1G	2r	2B	1d]	1r
.	2.d	2B	.	.
1A	.	1c	1r	1f
.	4c	.	.	.
.	2c	.	.	.
=63	=63	=63	=63	=63
1G	1B	1d	2r	1g
.	.	.	2B	.
1F	2A	2r	2c	1a
.	2D	2A	2d	.
=64	=64	=64	=64	=64
1E	1G	2B	1e	1g
.	.	2c	.	.
1D	2r	1d	1a	1f
.	[2d	.	.	.
=65	=65	=65	=65	=65
1E	2d]	0G	0g	1e
.	1c	.	.	.
1r	.	.	.	1d
.	2B	.	.	.
=66	=66	=66	=66	=66
1.C	2c	2.E	2.g	[0e
.	1c	.	.	.
.	.	4F	4f	.
.	.	1G	4e	.
.	.	.	4d	.
2C	[2e	.	[2c	.
=67	=67	=67	=67	=67
0AA	4e]	1A	2c]	0e]
.	4d	.	.	.
.	4c	.	2A	.
.	4B	.	.	.
.	1A	1E	1c	.
=68	=68	=68	=68	=68
[0E	[0G#	[0E	[0B	[0e
=69	=69	=69	=69	=69
0E]	0G#]	0E]	0B]	0e]
==	==	==	==	==
*-	*-	*-	*-	*-
!!!CDT: 1525/^1526/-1594/2/2
!!!OCY: Italia
!!!AGN: Mass (Paraphrase)
!!!AST: renaissance, vocal
!!!ASW: Gregorian Mass
!!!PWK: Masses, Book Mantuan I
!!!RNB: Cadence finals: A
!!!YOR: Le Opere Complete, v. 18, p. 1
!!!YOO: Rome, Italy: Fratelli Scalera
!!!END: 1992//
!!!EED: John Miller
!!!YEC: Copyright 2000, John Miller
!!!YEN: United States of America
!!!YEM: Rights to all derivative electronic formats reserved.
!!!YEM: Refer to licensing agreement for further details.
!!!YEM: This file must be accompanied by the licensing agreement.
!!!YEM: A copy of the licensing agreement may be found at http://www.music-cog.ohio-state.edu/HumdrumDatabases/Palestrina/license.txt
!!!EMD: converted to Humdrum by Bret Aarden
